svgs/thin/arrows-from-dotted-line.svg

<svg xmlns="http://www.w3.org/2000/svg" viewBox="0 0 448 512"><!--! Font Awesome Pro 6.0.0-alpha3 by @fontawesome - https://fontawesome.com License - https://fontawesome.com/license (Commercial License) --><path d="M32 240C23.16 240 16 247.2 16 256S23.16 272 32 272S48 264.8 48 256S40.84 240 32 240zM144 256c0-8.836-7.164-16-16-16S112 247.2 112 256S119.2 272 128 272S144 264.8 144 256zM208 256c0 8.836 7.164 16 16 16s16-7.164 16-16S232.8 240 224 240S208 247.2 208 256zM320 240c-8.836 0-16 7.164-16 16s7.164 16 16 16s16-7.164 16-16S328.8 240 320 240zM416 240c-8.836 0-16 7.164-16 16s7.164 16 16 16s16-7.164 16-16S424.8 240 416 240zM136 104c2.047 0 4.094-.7813 5.656-2.344L216 27.31V184c0 4.406 3.594 7.984 8 7.984S232 188.4 232 184V27.31l74.34 74.34C307.9 103.2 309.9 104 312 104c5.719 0 8-5.114 8-8.021c0-2.047-.7813-4.073-2.344-5.635l-88-88C228.1 .7813 226 0 223.1 0S219.9 .7813 218.3 2.344l-88 88C128.8 91.91 128 93.93 128 95.98C128 100.5 131.7 104 136 104zM312 408c-2.047 0-4.094 .7813-5.656 2.344L232 484.7V328c0-4.406-3.594-8.01-8-8.01S216 323.6 216 328v156.7l-74.34-74.34C140.1 408.8 138 408 136 408C131.7 408 128 411.4 128 415.1c0 2.047 .7813 4.099 2.344 5.662l88 88C219.9 511.2 221.9 512 224 512s4.094-.7813 5.656-2.344l88-88C319.2 420.1 320 418 320 415.1C320 411.4 316.3 408 312 408z"/></svg>

<svg xmlns="http://www.w3.org/2000/svg" viewBox="0 0 448 512"><!-- Font Awesome Pro 6.0.0-alpha2 by @fontawesome - https://fontawesome.com License - https://fontawesome.com/license (Commercial License) --><path d="M32 240C23.164 240 16 247.164 16 256S23.164 272 32 272S48 264.836 48 256S40.836 240 32 240ZM144 256C144 247.164 136.836 240 128 240S112 247.164 112 256S119.164 272 128 272S144 264.836 144 256ZM208 256C208 264.836 215.164 272 224 272S240 264.836 240 256S232.836 240 224 240S208 247.164 208 256ZM320 240C311.164 240 304 247.164 304 256S311.164 272 320 272S336 264.836 336 256S328.836 240 320 240ZM416 240C407.164 240 400 247.164 400 256S407.164 272 416 272S432 264.836 432 256S424.836 240 416 240ZM136 104C138.047 104 140.094 103.219 141.656 101.656L216 27.312V184C216 188.406 219.594 192 224 192S232 188.406 232 184V27.312L306.344 101.656C307.906 103.219 309.938 104 312 104C317.719 104 320 98.906 320 96C320 93.953 319.219 91.906 317.656 90.344L229.656 2.344C228.094 0.781 226.047 0 224 0S219.906 0.781 218.344 2.344L130.344 90.344C128.781 91.906 128 93.953 128 96C128 100.57 131.737 104 136 104ZM312 408C309.953 408 307.906 408.781 306.344 410.344L232 484.688V328C232 323.594 228.406 320 224 320S216 323.594 216 328V484.688L141.656 410.344C140.094 408.781 138.047 408 136 408C131.737 408 128 411.433 128 416C128 418.047 128.781 420.094 130.344 421.656L218.344 509.656C219.906 511.219 221.938 512 224 512S228.094 511.219 229.656 509.656L317.656 421.656C319.219 420.094 320 418.047 320 416C320 411.43 316.263 408 312 408Z"/></svg>
